img/logo/logo-blue.svg

<?xml version="1.0" encoding="UTF-8" standalone="no"?>
<svg width="212px" height="212px" viewBox="0 0 212 212" version="1.1" xmlns="http://www.w3.org/2000/svg" xmlns:xlink="http://www.w3.org/1999/xlink">
    <!-- Generator: Sketch 50.2 (55047) - http://www.bohemiancoding.com/sketch -->
    <title>Group 18 Copy 3</title>
    <desc>Created with Sketch.</desc>
    <defs></defs>
    <g id="Page-1" stroke="none" stroke-width="1" fill="none" fill-rule="evenodd">
        <g id="dock-logo" transform="translate(-63.000000, -528.000000)" fill="#5543FF">
            <g id="Group-18-Copy-3" transform="translate(63.000000, 528.000000)">
                <path d="M200.10255,57.926834 C207.398239,72.2899325 211.510511,88.5423576 211.510511,105.755255 C211.510511,164.16227 164.16227,211.510511 105.755255,211.510511 C47.3482406,211.510511 8.52651283e-14,164.16227 8.52651283e-14,105.755255 C8.52651283e-14,47.3482406 47.3482406,9.23705556e-14 105.755255,9.23705556e-14 C123.537776,9.23705556e-14 140.295202,4.38894818 155.00338,12.14269 C164.148608,12.9568553 174.020431,12.2665087 184.618846,10.07165 C190.958231,8.75880323 197.167567,12.8049126 198.487786,19.1088846 C198.76244,20.4203464 198.807761,21.7690671 198.621758,23.0958358 C197.393694,31.8556864 197.604833,41.4903427 199.255177,51.9998049 C199.573148,54.0246604 199.855606,56.0003368 200.10255,57.926834 Z M106.767267,180.138138 C147.847799,180.138138 181.15015,146.835787 181.15015,105.755255 C181.15015,85.0383497 172.680752,66.299578 159.015499,52.8124838 C145.583276,39.5553811 127.130894,31.3723724 106.767267,31.3723724 C65.6867354,31.3723724 32.3843844,64.6747234 32.3843844,105.755255 C32.3843844,146.835787 65.6867354,180.138138 106.767267,180.138138 Z" id="Combined-Shape-Copy-4"></path>
            </g>
        </g>
    </g>
</svg>

<svg width="212" height="212" xmlns="http://www.w3.org/2000/svg"><path d="M200.103 57.927c7.295 14.363 11.408 30.615 11.408 47.828 0 58.407-47.349 105.756-105.756 105.756C47.348 211.51 0 164.162 0 105.755 0 47.348 47.348 0 105.755 0c17.783 0 34.54 4.389 49.248 12.143 9.146.814 19.017.124 29.616-2.071 6.34-1.313 12.549 2.733 13.869 9.037.274 1.311.32 2.66.134 3.987-1.228 8.76-1.017 18.394.633 28.904.318 2.025.6 4 .848 5.927zm-93.336 122.211c41.08 0 74.383-33.302 74.383-74.383 0-20.717-8.47-39.455-22.135-52.943-13.432-13.257-31.884-21.44-52.248-21.44-41.08 0-74.383 33.303-74.383 74.383s33.303 74.383 74.383 74.383z" fill="#5543FF" fill-rule="evenodd"/></svg>
